!!!COM:	Bach, Johann Sebastian
!!!CDT:	1685/02/21/-1750/07/28/
!!!OTL@@DE:	Nun ruhen alle W&auml;lder
!!!SCT:	BWV 245/11
!!!PC#:	63
!!!AGN:	chorale
**kern	**kern	**kern	**kern
*ICvox	*ICvox	*ICvox	*ICvox
*Ibass	*Itenor	*Ialto	*Isoprn
*I"Bass	*I"Tenor	*I"Alto	*I"Soprano
*clefF4	*clefGv2	*clefG2	*clefG2
*k[f#c#g#]	*k[f#c#g#]	*k[f#c#g#]	*k[f#c#g#]
*A:	*A:	*A:	*A:
*M4/4	*M4/4	*M4/4	*M4/4
*met(c)	*met(c)	*met(c)	*met(c)
*MM100	*MM100	*MM100	*MM100
4A	4e	4a	4cc#
=1	=1	=1	=1
4d	4d	4f#	4a
8c#L	4d	4g#	4b
8BJ	.	.	.
4.A	4e	8aL	8cc#L
.	.	8bJ	8ddJ
.	4A	4cc#	4ee
8G	.	.	.
=2	=2	=2	=2
2F#	4A	4cc#	2dd
.	4B	8bL	.
.	.	8aJ	.
4E#;	4c#;	4g#X;	4cc#;
4F#	4f#	4a	4cc#
=3	=3	=3	=3
8C#L	4e	4a	4ee
8BB	.	.	.
8C#	4e	4a	4ee
8DJ	.	.	.
4E	4e	4g#	4b
4AA	4e	8bL	8ddL
.	.	8aJ	8cc#J
=4	=4	=4	=4
4BB	4e	2f#	2a
4BB#	4d#	.	.
4C#;	4G#;	4e;	4g#;
4D	4G#	4B	4e
=5	=5	=5	=5
4C#	4A	4e	4a
4BBnX	4dnX	8f#L	4b
.	.	8g#J	.
4AA	8eL	8aL	8cc#L
.	8A	16bL	16ddL
.	.	16cc#JJ	16eeJJ
4D	8G#	8bL	8ddL
.	8AJ	8aJ	8cc#J
=6	=6	=6	=6
2.E;	2.e;	2.g#;	2.b;
4E#	4c#	4g#	4cc#
=7	=7	=7	=7
4F#	4c#	4f#	4a
4G#	4B	4enX	4b
4A	8AL	4e	8cc#L
.	8BJ	.	8ddJ
4A#	4c#	4f#	4ee
=8	=8	=8	=8
2B	4B	4f#	2dd
.	4G#	4e#	.
4F#;	4A#;	4f#;	4cc#;
4F#	4A	4f#	8cc#L
.	.	.	8ddJ
=9	=9	=9	=9
8C#L	4A	4enX	4ee
8BBJ	.	.	.
4C#	4A	8aL	4ee
.	.	8g#J	.
4D#	4A	4f#	4b
4E	4G#	8eL	4cc#
.	.	16dL	.
.	.	16c#JJ	.
=10	=10	=10	=10
4E	4c#	2f#	2a
4D#	4B	.	.
4E;	4B;	4e;	4g#;
4C#	4c#	4e	4e
=11	=11	=11	=11
8F#L	4c#	4e	4a
8E	.	.	.
8F#	4B	4dnX	4b
8G#J	.	.	.
4A	4.e	8c#L	8cc#L
.	.	8eJ	8ddJ
8C#L	.	4a	8eeL
8DJ	8f#	.	8ddJ
=12	=12	=12	=12
4E	4e	4a	4cc#
4E	4d	4g#	4b
4AA;	4c#;	4e;	4a;
==	==	==	==
*-	*-	*-	*-
!!!hum2abc: -Q ''
!!!title: @{PC#}. @{OTL@@DE}
!!!YOR1: 371 vierstimmige Choralges&auml;nge von Johann Sebastian Bach, 
!!!YOR2: 4th ed. by Alfred D&ouml;rffel (Leipzig: Breitkopf und H&auml;rtel, 
!!!YOR2: c.1875). 178 pp. Plate "V.A.10".  reprint: J.S. Bach, 371 Four-Part 
!!!YOR4: Chorales (New York: Associated Music Publishers, Inc., c.1940).
!!!SMS: B&H, 4th ed, Alfred D&ouml;rffel, c.1875, plate V.A.10
!!!EED:  Craig Stuart Sapp
!!!EEV:  2009/05/22
